X: 1248
T: Bennett's Waltz
B: australian traditional tunes wiki
M:3/4
L:1/8
R: Waltz
Q: 1/4=100
K:G
V:1 
B2||"G"D2G2A2|"G"B4D2|"G"G2B2e2|"G"d4dd|"D7"d2c2c2|"D7"F4d2|"D7"e2d2d2|"G"B4G2|
"G"D2G2A2|"G"B4D2|"G"G2B2e2|"G"d4dd|"D7"d2c2B2|"D7"A4B2|"D7"c2E2F2|"G"G4dd||
||"G"d2e2dd|"G"d2e2d2|"C"g2f2e2|"D7"d4dd|"G"d2e2dd|"G"d2e2d2|"C"g2e2e2|"D7"d4Bd|
|"G"D2G2A2|"G"B4D2|"G"G2B2e2|"G"d4dd|"D7"d2c2B2|"D7"A4B2|"D7"c2E2F2|"G"G6||
% abcbook-tune_id 6342d53a5f1e1e8ec9671e25


% abcbook-boost 0
% abcbook-tablature 
% abcbook-transpose 
% abcbook-lastupdated 1665324355889
% abcbook-soundfonts 
% abcbook-repeats 1
% NFF Book 2013

